svgs/sharp-solid/newspaper.svg

<svg xmlns="http://www.w3.org/2000/svg" viewBox="0 0 512 512"><!--! Font Awesome Pro 6.6.0 by @fontawesome - https://fontawesome.com License - https://fontawesome.com/license (Commercial License) Copyright 2024 Fonticons, Inc. --><path d="M96 32l32 0 352 0 32 0 0 32 0 384 0 32-32 0-320 0-32 0-48 0-48 0L0 480l0-32L0 128 0 96l64 0 0 32 0 288 16 0 16 0L96 64l0-32zm64 64l0 128 160 0 0-128L160 96zm224 0l0 32 16 0 32 0 16 0 0-32-16 0-32 0-16 0zm0 96l0 32 16 0 32 0 16 0 0-32-16 0-32 0-16 0zM160 288l0 32 16 0 256 0 16 0 0-32-16 0-256 0-16 0zm0 96l0 32 16 0 256 0 16 0 0-32-16 0-256 0-16 0z"/></svg>

<svg xmlns="http://www.w3.org/2000/svg" viewBox="0 0 512 512"><!--! Font Awesome Pro 6.5.2 by @fontawesome - https://fontawesome.com License - https://fontawesome.com/license (Commercial License) Copyright 2024 Fonticons, Inc. --><path d="M96 32h32H480h32V64 448v32H480 160 128 80 32 0V448 128 96H64v32V416H80 96V64 32zm64 64V224H320V96H160zm224 0v32h16 32 16V96H432 400 384zm0 96v32h16 32 16V192H432 400 384zM160 288v32h16H432h16V288H432 176 160zm0 96v32h16H432h16V384H432 176 160z"/></svg>
